icon-themes/sifr_svg/cmd/sc_dbeditsqlview.svg

<svg viewBox="0 0 16 16" xmlns="http://www.w3.org/2000/svg"><path d="m1 1v1c0 .224022.12983.528449.3125.71875l.3710938.28125 1.3164062 1-1.3164062 1-.3710938.28125c-.18267.190288-.3125.461858-.3125.71875v1h.4121094.5878906c.30945 0 .55232-.0903.75-.28125l2.25-1.8828125v-1.6152344c-.725151-.618354-1.233922-1.1698591-2.25-1.9394531-.19768-.19095-.44055-.28125-.75-.28125h-.5878906zm1.5 7c-.8284271 0-1.5.6715729-1.5 1.5.0005477.599181.273509.992749.6757812 1.246094l2.2304688 1.464844c.0604828.084292.0932464.185315.09375.289062 0 .276142-.2238576.5-.5.5h-2.5v1h2.5c.8284271 0 1.5-.671573 1.5-1.5-.0004478-.6139-.3201424-1.029472-.7167969-1.273438l-2.1796875-1.4238276c-.0667312-.0868501-.1030991-.193209-.1035156-.3027344 0-.2761424.2238576-.5.5-.5h2.5v-1zm5.5 0a2 2 0 0 0 -2 2v2a2 2 0 0 0 2 2h1a2 2 0 0 0 .8203125-.179688l.1796875.179688h1v-1l-.177734-.177734a2 2 0 0 0 .177734-.822266v-2a2 2 0 0 0 -2-2zm4 0v6h1 2v-1h-2v-5zm-4 1h1a1 1 0 0 1 1 1v2l-1-1-1 1 1 1h-1a1 1 0 0 1 -1-1v-2a1 1 0 0 1 1-1z" fill="#555753"/></svg>

<svg xmlns="http://www.w3.org/2000/svg" viewBox="0 0 16 16">
  <path
     style="fill:#555753"
     d="M 1 1 L 1 2 C 1 2.224022 1.12983 2.528449 1.3125 2.71875 L 1.6835938 3 L 3 4 L 1.6835938 5 L 1.3125 5.28125 C 1.12983 5.471538 1 5.743108 1 6 L 1 7 L 1.4121094 7 L 2 7 C 2.30945 7 2.55232 6.9097 2.75 6.71875 L 5 4.8359375 L 5 3.2207031 C 4.274849 2.6023491 3.766078 2.050844 2.75 1.28125 C 2.55232 1.0903 2.30945 1 2 1 L 1.4121094 1 L 1 1 z M 2.5 8 C 1.6715729 8 1 8.6715729 1 9.5 C 1.0005477 10.099181 1.273509 10.492749 1.6757812 10.746094 L 3.90625 12.210938 C 3.9667328 12.29523 3.9994964 12.396253 4 12.5 C 4 12.776142 3.7761424 13 3.5 13 L 1 13 L 1 14 L 3.5 14 C 4.3284271 14 5 13.328427 5 12.5 C 4.9995522 11.8861 4.6798576 11.470528 4.2832031 11.226562 L 2.1035156 9.8027344 C 2.0367844 9.7158843 2.0004165 9.6095254 2 9.5 C 2 9.2238576 2.2238576 9 2.5 9 L 5 9 L 5 8 L 2.5 8 z M 8 8 A 2 2 0 0 0 6 10 L 6 12 A 2 2 0 0 0 8 14 L 9 14 A 2 2 0 0 0 9.8203125 13.820312 L 10 14 L 11 14 L 11 13 L 10.822266 12.822266 A 2 2 0 0 0 11 12 L 11 10 A 2 2 0 0 0 9 8 L 8 8 z M 12 8 L 12 14 L 13 14 L 15 14 L 15 13 L 13 13 L 13 8 L 12 8 z M 8 9 L 9 9 A 1 1 0 0 1 10 10 L 10 12 L 9 11 L 8 12 L 9 13 L 8 13 A 1 1 0 0 1 7 12 L 7 10 A 1 1 0 0 1 8 9 z "
     />
</svg>
